X:102
T:President Grant's Hornpipe
C:Harry Carleton
B:Ryan's Mammoth Tunebook
Z:Nigel Gatherer
M:4/4
L:1/8
K:Bb
dc|BFDF Bcde|fgfd B2 cd|egbg fdBd|gfdB c2 dc|BFDF Bcde|fgfd B2 cd|
egBg fdBd|c2 B2 B2::ba|g^fga g=fde|fgfd f2 ba|gabg fdBd|cdcB GFDC|
B,F=EF DBAB|Fd^cd Bf=ef|gabg fdBd|c2 B2 B2:|
<end>
<start>
